latex_in_markdown/.watch-latex-md-images/a826d4507bb86e911d0f44a68d0773c4.svg

<ns0:svg xmlns:ns0="http://www.w3.org/2000/svg" xmlns:ns1="http://www.w3.org/1999/xlink" height="11.9552pt" version="1.1" viewBox="23.686 62.7646 11.4648 11.9552" width="11.4648pt" watch_lated_md:baseline="-5.329070518200751e-15" xmlns:watch_lated_md="https://github.com/Quansight/pearu-sandbox/latex_in_markdown/">
<ns0:defs>
<ns0:path d="m3.97677 -11.5171c0.0172154 -0.0688618 0.0516463 -0.172154 0.0516463 -0.258232c0 -0.172154 -0.172154 -0.172154 -0.206585 -0.172154c-0.0172154 0 -0.636971 0.0516463 -0.946849 0.0860772c-0.292662 0.0172154 -0.550894 0.0516463 -0.860772 0.0688618c-0.413171 0.0344309 -0.533679 0.0516463 -0.533679 0.361524c0 0.172154 0.172154 0.172154 0.344309 0.172154c0.877987 0 0.877987 0.154939 0.877987 0.327093c0 0.120508 -0.137724 0.619756 -0.206585 0.929634l-0.413171 1.65268c-0.172154 0.688618 -1.15343 4.59652 -1.2223 4.9064c-0.0860772 0.430386 -0.0860772 0.723049 -0.0860772 0.946849c0 1.75597 0.98128 2.66839 2.10028 2.66839c1.99699 0 4.06284 -2.5651 4.06284 -5.06134c0 -1.58382 -0.895203 -2.70282 -2.18636 -2.70282c-0.895203 0 -1.70433 0.740264 -2.03142 1.08457l1.25673 -5.00969zm-1.08457 11.345c-0.550894 0 -1.15343 -0.413171 -1.15343 -1.75597c0 -0.56811 0.0516463 -0.895203 0.361524 -2.10028c0.0516463 -0.223801 0.327093 -1.32559 0.395955 -1.54939c0.0344309 -0.137724 1.05014 -1.6699 2.22079 -1.6699c0.757479 0 1.10179 0.757479 1.10179 1.65268c0 0.826341 -0.482032 2.77169 -0.912418 3.66689c-0.430386 0.929634 -1.2223 1.75597 -2.01421 1.75597z" id="g0-98" />
<ns0:path d="m2.85776 -0.705833c0 -0.430386 -0.344309 -0.705833 -0.705833 -0.705833c-0.344309 0 -0.705833 0.275447 -0.705833 0.705833s0.344309 0.705833 0.705833 0.705833c0.344309 0 0.705833 -0.275447 0.705833 -0.705833z" id="g1-46" />
</ns0:defs>
<ns0:g id="page1">
<ns0:use x="27.9837" ns1:href="#g0-98" y="74.7198" />
</ns0:g>
</ns0:svg>

<ns0:svg xmlns:ns0="http://www.w3.org/2000/svg" xmlns:ns1="http://www.w3.org/1999/xlink" height="11.9552pt" version="1.1" viewBox="23.686 62.7646 11.4648 11.9552" width="11.4648pt" watch_lated_md:baseline="-5.329070518200751e-15" xmlns:watch_lated_md="https://github.com/Quansight/pearu-sandbox/latex_in_markdown/">
<ns0:defs>
<ns0:path d="M3.97677 -11.5171C3.99398 -11.586 4.02841 -11.6893 4.02841 -11.7754C4.02841 -11.9475 3.85626 -11.9475 3.82183 -11.9475C3.80461 -11.9475 3.18486 -11.8959 2.87498 -11.8614C2.58232 -11.8442 2.32408 -11.8098 2.01421 -11.7926C1.60104 -11.7581 1.48053 -11.7409 1.48053 -11.4311C1.48053 -11.2589 1.65268 -11.2589 1.82484 -11.2589C2.70282 -11.2589 2.70282 -11.104 2.70282 -10.9318C2.70282 -10.8113 2.5651 -10.312 2.49624 -10.0022L2.08307 -8.34949C1.91091 -7.66087 0.929634 -3.75297 0.860772 -3.44309C0.774695 -3.0127 0.774695 -2.72004 0.774695 -2.49624C0.774695 -0.740264 1.75597 0.172154 2.87498 0.172154C4.87197 0.172154 6.93782 -2.39295 6.93782 -4.88919C6.93782 -6.47301 6.04262 -7.59201 4.75146 -7.59201C3.85626 -7.59201 3.04713 -6.85175 2.72004 -6.50744L3.97677 -11.5171ZM2.89219 -0.172154C2.3413 -0.172154 1.73876 -0.585325 1.73876 -1.92813C1.73876 -2.49624 1.79041 -2.82333 2.10028 -4.02841C2.15193 -4.25221 2.42738 -5.354 2.49624 -5.5778C2.53067 -5.71553 3.54638 -7.2477 4.71703 -7.2477C5.47451 -7.2477 5.81882 -6.49022 5.81882 -5.59502C5.81882 -4.76868 5.33679 -2.82333 4.9064 -1.92813C4.47601 -0.998496 3.6841 -0.172154 2.89219 -0.172154Z" id="g0-98" />
<ns0:path d="M2.85776 -0.705833C2.85776 -1.13622 2.51345 -1.41167 2.15193 -1.41167C1.80762 -1.41167 1.4461 -1.13622 1.4461 -0.705833S1.79041 0 2.15193 0C2.49624 0 2.85776 -0.275447 2.85776 -0.705833Z" id="g1-46" />
</ns0:defs>
<ns0:g id="page1">
<ns0:use x="27.9837" ns1:href="#g0-98" y="74.7198" />
</ns0:g>
</ns0:svg>
